docs/public/tsdown.svg

<svg xmlns="http://www.w3.org/2000/svg" xmlns:xlink="http://www.w3.org/1999/xlink" width="100" height="100" viewBox="0 0 100 100" fill="none">
<path     fill="#FFFFFF" fill-opacity="0" d="M0 100L100 100L100 0L0 0L0 100Z">
</path>
<path     fill="#BABABA"  d="M28.9358 21.7655C34.9803 14.9647 53.1051 12.4948 57.7558 14.8855C62.4066 17.2761 76.7131 35.4856 74.0258 39.9555C69.5321 47.4301 61.8797 52.9095 60.4658 53.9955C58.8357 51.4 48.6211 55.8081 50.9558 60.4955C51.1335 62.4642 40.9984 67.2332 36.3845 67.6278C35.9942 67.724 35.6324 67.7283 35.3058 67.6255C29.2986 66.8905 18.5569 54.5972 17.2658 49.6155C14.9578 40.7102 26.7073 24.2729 28.9358 21.7655Z">
</path>
<path    stroke="rgba(107, 107, 107, 0.78)" stroke-width="1"    d="M28.9358 21.7655C34.9803 14.9647 53.1051 12.4948 57.7558 14.8855C62.4066 17.2761 76.7131 35.4856 74.0258 39.9555M28.9358 21.7655C26.7073 24.2729 14.9578 40.7102 17.2658 49.6155C18.5569 54.5972 29.2986 66.8905 35.3058 67.6255M28.9358 21.7655C40.0043 42.1614 51.9553 49.1155 50.9558 50.4955M74.0258 39.9555C69.5321 47.4301 61.8797 52.9095 60.4658 53.9955C58.8357 51.4 48.6211 55.8081 50.9558 60.4955C51.1491 62.6374 39.1353 68.094 35.3058 67.6255M74.0258 39.9555L50.9558 50.4955M35.3058 67.6255C39.5916 68.9753 49.9564 51.8755 50.9558 50.4955">
</path>
<path d="M50.9731 60.4712C49.0289 55.6007 58.6175 51.4692 60.4731 53.9712L81.9631 76.9912C80.618 74.5701 67.9648 81.7399 70.4631 85.9912L50.9731 60.4712Z" stroke="rgba(122, 85, 15, 1)" stroke-width="1"      fill="#D1A656" >
</path>
<path d="M69.9658 84.991C70.7392 89.5971 84.8126 81.8793 81.9658 76.991C81.5971 74.4552 69.5527 80.8197 69.9658 84.991Z" stroke="rgba(122, 85, 15, 1)" stroke-width="1"      fill="#B87E44" >
</path>
<path d="M39.002 25.7024C37.6634 21.7051 56.2304 18.8365 56.254 20.4406C58.5055 20.81 68.1357 35.0378 66.8078 34.8211C66.8706 37.4413 54.4991 42.9123 52.0395 41.8533C50.6307 41.8533 41.4716 33.0771 39.002 25.7024Z" stroke="rgba(69, 106, 191, 1)" stroke-width="1"      fill="#89A5E8" >
</path>
<path    stroke="rgba(255, 255, 255, 1)" stroke-width="1"  stroke-linecap="round"  d="M56.8223 33.5286C56.875 33.7113 56.909 33.8274 56.9241 33.8769C56.9393 33.9264 56.952 33.9647 56.9621 33.9919C56.9722 34.0192 56.9801 34.0404 56.9856 34.0555C56.9911 34.0707 56.9976 34.0861 57.005 34.1016C57.0124 34.1172 57.0204 34.1366 57.029 34.1599C57.0376 34.1832 57.0478 34.2074 57.0596 34.2323C57.0715 34.2572 57.0832 34.2809 57.0947 34.3033C57.1062 34.3258 57.1177 34.347 57.1291 34.3669C57.1405 34.3868 57.1526 34.4076 57.1653 34.4293C57.178 34.451 57.1911 34.4726 57.2046 34.494C57.2181 34.5155 57.2333 34.5398 57.2501 34.567C57.2669 34.5942 57.2822 34.6197 57.2961 34.6435C57.31 34.6673 57.3231 34.6889 57.3356 34.7082C57.3481 34.7275 57.3595 34.7444 57.3697 34.7588C57.3798 34.7732 57.3889 34.7859 57.3969 34.7968C57.4048 34.8077 57.4147 34.8225 57.4266 34.841C57.4385 34.8595 57.4496 34.878 57.46 34.8967C57.4705 34.9154 57.4819 34.9346 57.4942 34.9545C57.5066 34.9744 57.5195 34.9967 57.5329 35.0214C57.5462 35.0461 57.5592 35.0714 57.5718 35.0973C57.5845 35.1232 57.5986 35.1535 57.6142 35.188C57.6298 35.2225 57.646 35.2579 57.6627 35.2943C57.6794 35.3307 57.6964 35.3667 57.7135 35.4022C57.7306 35.4377 57.7477 35.4721 57.7646 35.5052C57.7815 35.5384 57.7964 35.5698 57.8092 35.5995C57.822 35.6291 57.8354 35.6602 57.8494 35.6929C57.8633 35.7255 57.8766 35.7562 57.8893 35.7849C57.902 35.8136 57.9143 35.8393 57.9262 35.8622C57.9382 35.8851 57.9506 35.908 57.9635 35.9311C57.9764 35.9542 57.9898 35.9789 58.0035 36.0054C58.0172 36.0319 58.0304 36.0576 58.0431 36.0825C58.0558 36.1075 58.0692 36.1352 58.0831 36.1656C58.097 36.196 58.1103 36.2236 58.1228 36.2485C58.1354 36.2734 58.1477 36.2978 58.1598 36.3219C58.1719 36.346 58.184 36.3701 58.1961 36.3942C58.2082 36.4183 58.2202 36.4423 58.2321 36.466C58.244 36.4898 58.2564 36.5127 58.2694 36.5347C58.2824 36.5568 58.2957 36.5806 58.3094 36.6063C58.3231 36.632 58.3362 36.6565 58.3487 36.6796C58.3613 36.7027 58.3752 36.7291 58.3903 36.7586C58.4054 36.7881 58.4195 36.8159 58.4326 36.842C58.4457 36.8681 58.4569 36.8898 58.4662 36.9073C58.4756 36.9248 58.4856 36.9439 58.4962 36.9647C58.5069 36.9855 58.5179 37.0064 58.5292 37.0275C58.5405 37.0485 58.5512 37.0686 58.5612 37.0878C58.5711 37.107 58.5815 37.1265 58.5922 37.1464C58.6029 37.1663 58.6125 37.1836 58.6208 37.1984C58.6291 37.2133 58.6369 37.2262 58.644 37.2373C58.6511 37.2484 58.6574 37.2587 58.6629 37.2682C58.6684 37.2777 58.6728 37.2857 58.6763 37.2922C58.6798 37.2987 58.683 37.3044 58.6857 37.3095C58.6884 37.3146 58.6914 37.3195 58.6949 37.324C58.6984 37.3285 58.7015 37.3341 58.7042 37.3408C58.7069 37.3475 58.7101 37.3541 58.7136 37.3605C58.7171 37.367 58.7209 37.374 58.7248 37.3815C58.7287 37.389 58.7321 37.3962 58.735 37.4031C58.7379 37.4099 58.7411 37.4185 58.7448 37.429C58.7485 37.4395 58.7518 37.4487 58.7546 37.4568C58.7573 37.4649 58.7599 37.4724 58.7623 37.4794C58.7646 37.4865 58.7681 37.4946 58.7727 37.5037C58.7773 37.5129 58.7864 37.537 58.7999 37.5759C58.8134 37.6149 58.8252 37.6488 58.8352 37.6776">
</path>
<path    stroke="rgba(255, 255, 255, 1)" stroke-width="1"  stroke-linecap="round"  d="M54.4333 34.2783C54.598 34.1784 54.7047 34.1137 54.7532 34.084C54.8017 34.0543 54.8447 34.0273 54.8825 34.0028C54.9202 33.9784 54.9595 33.9541 55.0007 33.9299C55.042 33.9057 55.0788 33.8836 55.1115 33.8635C55.1441 33.8434 55.1801 33.8225 55.2194 33.8007C55.2588 33.779 55.2976 33.758 55.336 33.7378C55.3745 33.7176 55.4146 33.6966 55.4562 33.6748C55.4977 33.6531 55.5372 33.6324 55.5745 33.6127C55.6116 33.5931 55.6502 33.5731 55.69 33.5528C55.7299 33.5325 55.7691 33.5121 55.8071 33.4918C55.8452 33.4715 55.8838 33.4516 55.9226 33.4323C55.9613 33.4129 55.9978 33.3943 56.0322 33.3766C56.0667 33.3588 56.1014 33.3413 56.1367 33.324C56.1717 33.3067 56.2091 33.2883 56.2487 33.2686C56.2883 33.2489 56.3246 33.2307 56.3573 33.2139C56.3899 33.197 56.426 33.1778 56.4655 33.1561C56.5051 33.1344 56.5444 33.113 56.5839 33.0919C56.6233 33.0708 56.6595 33.0519 56.6926 33.0353C56.7255 33.0187 56.7603 33.0009 56.7971 32.9819C56.8337 32.9629 56.8698 32.9447 56.9052 32.9273C56.9404 32.9098 56.9752 32.8932 57.0091 32.8773C57.0431 32.8614 57.0775 32.8463 57.1124 32.832C57.147 32.8177 57.1828 32.8025 57.2192 32.7866C57.2557 32.7706 57.2926 32.7549 57.3298 32.7394C57.367 32.7239 57.404 32.7086 57.441 32.6936C57.4781 32.6786 57.5158 32.6641 57.5541 32.6502C57.5924 32.6363 57.6298 32.6226 57.6665 32.6091C57.703 32.5956 57.7356 32.5835 57.7644 32.5727C57.793 32.5618 57.8215 32.5505 57.8498 32.5388C57.8782 32.5271 57.9044 32.5162 57.9283 32.5063C57.9524 32.4964 57.9764 32.4868 58.0005 32.4776C58.0247 32.4684 58.0489 32.4593 58.0731 32.4504C58.0974 32.4415 58.1203 32.4328 58.1419 32.4243C58.1637 32.4157 58.1829 32.4082 58.1996 32.4017C58.2164 32.3952 58.2304 32.3902 58.242 32.3865C58.2533 32.3828 58.2651 32.3793 58.2774 32.376C58.2896 32.3727 58.3041 32.3675 58.3209 32.3602C58.3377 32.3529 58.355 32.3448 58.3729 32.3358C58.3909 32.3269 58.4208 32.3117 58.4627 32.2902C58.5047 32.2688 58.5411 32.2502 58.5722 32.2343">
</path>
<path    stroke="rgba(255, 255, 255, 1)" stroke-width="1"  stroke-linecap="round"  d="M62.2226 31.0513C62.0955 30.9886 62.0132 30.9486 61.9758 30.9315C61.9384 30.9143 61.9072 30.9001 61.8821 30.8888C61.857 30.8776 61.8337 30.8676 61.8123 30.8588C61.7909 30.85 61.7656 30.8416 61.7365 30.8335C61.7074 30.8254 61.6812 30.819 61.6581 30.8142C61.635 30.8095 61.6125 30.8061 61.5907 30.8041C61.5688 30.8021 61.5456 30.8007 61.5211 30.7998C61.4966 30.7989 61.4672 30.7983 61.433 30.7979C61.3989 30.7976 61.3651 30.798 61.3317 30.7993C61.2983 30.8006 61.2569 30.8076 61.2076 30.8203C61.1583 30.8331 61.1116 30.8491 61.0674 30.8684C61.0232 30.8877 60.9795 30.9099 60.9363 30.9349C60.8931 30.9598 60.8536 30.9848 60.8179 31.0099C60.7821 31.0349 60.7478 31.0629 60.7151 31.0939C60.6824 31.1248 60.6533 31.154 60.6279 31.1814C60.6025 31.2088 60.575 31.2415 60.5455 31.2795C60.516 31.3176 60.4854 31.3606 60.4537 31.4086C60.422 31.4567 60.3925 31.5017 60.3652 31.5436C60.3379 31.5855 60.3116 31.629 60.2863 31.6741C60.261 31.7192 60.2385 31.7646 60.2189 31.8103C60.1993 31.856 60.1831 31.8984 60.1702 31.9373C60.1573 31.9762 60.1451 32.0192 60.1334 32.0662C60.1217 32.1131 60.1118 32.1621 60.1037 32.2131C60.0956 32.2642 60.0892 32.3168 60.0843 32.3709C60.0794 32.425 60.076 32.4805 60.0739 32.5376C60.0718 32.5947 60.0704 32.6513 60.0695 32.7074C60.0686 32.7635 60.068 32.8174 60.0676 32.8691C60.0673 32.9207 60.0724 32.9737 60.0829 33.0281C60.0934 33.0824 60.1068 33.1338 60.1232 33.1823C60.1395 33.2308 60.1571 33.2749 60.176 33.3147C60.1948 33.3545 60.2183 33.3961 60.2466 33.4395C60.2749 33.483 60.3007 33.5211 60.3241 33.5538C60.3476 33.5865 60.3688 33.615 60.3879 33.6394C60.407 33.6639 60.4237 33.6838 60.4381 33.6991C60.4525 33.7145 60.4666 33.728 60.4803 33.7395C60.494 33.751 60.5069 33.7611 60.5189 33.7696C60.5309 33.7782 60.5454 33.7863 60.5625 33.7939C60.5795 33.8016 60.5994 33.8091 60.6222 33.8165C60.645 33.8239 60.671 33.8313 60.7003 33.8386C60.7296 33.8459 60.7543 33.8512 60.7744 33.8543C60.7945 33.8574 60.8171 33.8597 60.842 33.861C60.8669 33.8623 60.8941 33.8632 60.9238 33.8638C60.9534 33.8643 60.9887 33.8632 61.0296 33.8605C61.0705 33.8578 61.1101 33.8522 61.1483 33.8438C61.1864 33.8353 61.2272 33.8248 61.2707 33.8121C61.3142 33.7994 61.3569 33.7851 61.3988 33.7694C61.4407 33.7537 61.4849 33.735 61.5312 33.7133C61.5775 33.6916 61.6294 33.6679 61.6869 33.6422C61.7443 33.6165 61.7991 33.5917 61.8513 33.5677C61.9034 33.5437 61.9587 33.5203 62.0172 33.4975C62.0757 33.4747 62.1325 33.4539 62.1878 33.4351C62.243 33.4163 62.2969 33.4014 62.3495 33.3903C62.4022 33.3792 62.4549 33.369 62.5076 33.3597C62.5603 33.3504 62.615 33.3414 62.6716 33.3327C62.7281 33.324 62.7778 33.3164 62.8207 33.3097C62.8636 33.3031 62.9033 33.2977 62.9398 33.2935C62.9763 33.2893 63.0099 33.2856 63.0405 33.2824C63.0711 33.2793 63.1027 33.277 63.1353 33.2756C63.1679 33.2743 63.1989 33.2733 63.2282 33.2728C63.2575 33.2722 63.2845 33.2718 63.3094 33.2715C63.3342 33.2713 63.355 33.2711 63.3717 33.271C63.3885 33.2709 63.4017 33.2709 63.4112 33.2708C63.4207 33.2707 63.4281 33.2707 63.4332 33.2707C63.4384 33.2707 63.4496 33.2741 63.4668 33.2808C63.4839 33.2875 63.5047 33.2966 63.5292 33.3081C63.5537 33.3196 63.5777 33.3317 63.6013 33.3444C63.6249 33.3572 63.6441 33.3681 63.659 33.3772C63.6739 33.3862 63.6863 33.3944 63.6962 33.4019C63.7061 33.4093 63.7155 33.417 63.7246 33.425C63.7336 33.4329 63.7438 33.4418 63.7552 33.4515C63.7667 33.4612 63.7766 33.4699 63.785 33.4776C63.7935 33.4853 63.8014 33.4953 63.8089 33.5078C63.8164 33.5202 63.8251 33.5366 63.8351 33.5569C63.845 33.5772 63.8562 33.5993 63.8685 33.623C63.8809 33.6467 63.8931 33.672 63.9051 33.6988C63.9172 33.7257 63.9279 33.7555 63.9372 33.7882C63.9465 33.8209 63.9532 33.852 63.9571 33.8813C63.961 33.9107 63.9639 33.9413 63.9656 33.9732C63.9673 34.0051 63.9685 34.0378 63.9692 34.0713C63.9699 34.1049 63.9704 34.1397 63.9707 34.1757C63.971 34.2117 63.9682 34.2482 63.9624 34.2853C63.9567 34.3224 63.948 34.3624 63.9364 34.4054C63.9248 34.4484 63.9127 34.4895 63.9002 34.5288C63.8877 34.5681 63.8725 34.6131 63.8548 34.664C63.837 34.7149 63.8183 34.7624 63.7986 34.8067C63.779 34.851 63.7572 34.8959 63.7331 34.9414C63.709 34.9869 63.678 35.0377 63.6403 35.0938C63.6026 35.1499 63.5666 35.199 63.5325 35.241C63.4984 35.2831 63.4643 35.3213 63.4302 35.3558C63.3961 35.3903 63.3586 35.4257 63.3178 35.462C63.277 35.4983 63.238 35.5295 63.2007 35.5556C63.1635 35.5817 63.1177 35.6111 63.0634 35.6437C63.0091 35.6764 62.96 35.704 62.9162 35.7267C62.8723 35.7494 62.8238 35.7711 62.7705 35.7917C62.7172 35.8123 62.6641 35.8301 62.611 35.8452C62.558 35.8603 62.5051 35.8741 62.4522 35.8866C62.3994 35.899 62.352 35.9094 62.3099 35.9177C62.2679 35.926 62.2237 35.9325 62.1772 35.9374C62.1307 35.9423 62.0825 35.9473 62.0324 35.9524C61.9823 35.9575 61.9348 35.9619 61.8898 35.9655C61.8448 35.9691 61.8044 35.9724 61.7685 35.9753C61.7327 35.9782 61.699 35.981 61.6674 35.9836C61.6357 35.9862 61.6037 35.988 61.5713 35.9891C61.539 35.9902 61.5035 35.9918 61.465 35.9937C61.4265 35.9956 61.3902 35.9977 61.3562 36C61.3221 36.0023 61.2845 36.0039 61.2434 36.0049C61.2022 36.0059 61.163 36.0066 61.1258 36.007C61.0886 36.0074 61.0562 36.007 61.0286 36.0059C61.0011 36.0048 60.9782 36.0039 60.96 36.0034C60.9419 36.0029 60.923 36.0019 60.9035 36.0004C60.884 35.9989 60.8556 35.9911 60.8182 35.977C60.7807 35.9629 60.7482 35.9507 60.7205 35.9403">
</path>
<path d="M33.8834 39.8423C35.0658 38.5566 39.3068 43.673 38.4399 45.1973C37.0609 47.6219 33.0423 51.0253 33.0423 52.0388C33.0424 53.0522 35.0586 53.6785 35.0587 55.5558C35.0587 56.5499 27.0396 55.6442 27.0548 55.0508C26.4277 54.5919 25.2158 48.672 25.451 45.6208C25.6861 42.5696 28.7056 48.3863 29.1882 47.622C32.0686 43.0601 32.701 41.128 33.8834 39.8423Z" stroke="rgba(184, 151, 61, 1)" stroke-width="1"      fill="#FCD056" >
</path>
</svg>

<svg xmlns="http://www.w3.org/2000/svg" fill="none" viewBox="0 0 100 100"><path fill="none" d="M0 100h100V0H0z"/><path fill="#BABABA" d="M28.936 21.766c6.044-6.801 24.17-9.271 28.82-6.88 4.65 2.39 18.957 20.6 16.27 25.07-4.494 7.474-12.146 12.953-13.56 14.04-1.63-2.596-11.845 1.812-9.51 6.5.177 1.968-9.958 6.737-14.571 7.132-.39.096-.753.1-1.08-.002-6.006-.736-16.748-13.029-18.04-18.01-2.307-8.906 9.442-25.343 11.67-27.85"/><path stroke="rgba(107, 107, 107, 0.78)" d="M28.936 21.766c6.044-6.801 24.17-9.271 28.82-6.88 4.65 2.39 18.957 20.6 16.27 25.07m-45.09-18.19c-2.229 2.507-13.978 18.944-11.67 27.85 1.29 4.981 12.033 17.275 18.04 18.01m-6.37-45.86c11.068 20.395 23.02 27.35 22.02 28.73m23.07-10.54c-4.494 7.474-12.146 12.953-13.56 14.04-1.63-2.596-11.845 1.812-9.51 6.5.193 2.141-11.82 7.598-15.65 7.13m38.72-27.67-23.07 10.54m-15.65 17.13c4.286 1.35 14.65-15.75 15.65-17.13"/><path fill="#D1A656" stroke="rgba(122, 85, 15, 1)" d="M50.973 60.471c-1.944-4.87 7.645-9.002 9.5-6.5l21.49 23.02c-1.345-2.42-13.998 4.749-11.5 9z"/><path fill="#B87E44" stroke="rgba(122, 85, 15, 1)" d="M69.966 84.991c.773 4.606 14.847-3.112 12-8-.369-2.536-12.413 3.829-12 8Z"/><path fill="#89A5E8" stroke="rgba(69, 106, 191, 1)" d="M39.002 25.702c-1.339-3.997 17.228-6.866 17.252-5.261 2.252.369 11.882 14.597 10.554 14.38.063 2.62-12.309 8.091-14.769 7.032-1.408 0-10.567-8.776-13.037-16.15Z"/><path stroke="rgba(255, 255, 255, 1)" stroke-linecap="round" d="m56.822 33.529.102.348q.023.075.038.115l.024.064.019.046.024.058a1 1 0 0 0 .066.143 2 2 0 0 0 .07.126 2 2 0 0 0 .085.138l.086.141.06.089a1 1 0 0 1 .064.1l.034.058a1 1 0 0 1 .078.142q.019.039.042.091l.1.214.05.103q.025.05.045.094l.08.186a1 1 0 0 0 .075.146 3 3 0 0 1 .08.152l.04.083a3 3 0 0 0 .076.156l.036.072.036.072q.018.036.037.069a2 2 0 0 1 .08.145 3 3 0 0 1 .084.162l.063.123.065.123a4 4 0 0 0 .115.204l.01.017q.003.008.009.015l.01.017.009.02.01.02a.3.3 0 0 1 .02.048q.007.016.01.028l.008.022.01.025q.007.014.028.072l.035.102M54.433 34.278l.32-.194.13-.081q.055-.037.118-.073l.11-.066a3 3 0 0 1 .225-.126l.12-.063.234-.122q.06-.03.117-.061l.116-.06.214-.108.112-.055a10 10 0 0 0 .444-.234l.212-.108a5 5 0 0 1 .425-.188l.224-.089.296-.111.078-.033.145-.056.127-.048a1 1 0 0 1 .077-.026l.044-.016.052-.024.2-.102M62.223 31.051a13 13 0 0 0-.34-.162l-.07-.03a1.223 1.223 0 0 0-.222-.055 1 1 0 0 0-.158-.006l-.101.001a.94.94 0 0 0-.264.07 1.3 1.3 0 0 0-.25.14 1 1 0 0 0-.103.085 2 2 0 0 0-.17.185q-.044.058-.091.13l-.089.135a2 2 0 0 0-.079.13 1.4 1.4 0 0 0-.116.263 1.8 1.8 0 0 0-.086.434 3 3 0 0 0-.01.167 8 8 0 0 0-.006.331q0 .078.015.16a1.2 1.2 0 0 0 .164.41 3 3 0 0 0 .14.2 1 1 0 0 0 .093.1l.039.03a.58.58 0 0 0 .103.047 1 1 0 0 0 .152.038q.03.005.068.007l.082.003q.045 0 .106-.003a1 1 0 0 0 .118-.017 2 2 0 0 0 .383-.13l.156-.072.164-.074a3 3 0 0 1 .498-.178 5 5 0 0 1 .323-.057l.149-.023a3 3 0 0 1 .488-.038l.063-.001h.061q.008 0 .034.01a1 1 0 0 1 .134.063 1 1 0 0 1 .095.058 1 1 0 0 1 .06.05l.029.026a.1.1 0 0 1 .024.03l.026.049.033.066q.02.036.037.076a.7.7 0 0 1 .052.182q.006.044.009.092a3 3 0 0 1 .005.203 1 1 0 0 1-.009.11 1 1 0 0 1-.026.12 3 3 0 0 1-.081.258 1.87 1.87 0 0 1-.654.892 2.3 2.3 0 0 1-.285.17 1.832 1.832 0 0 1-.305.118 4 4 0 0 1-.301.074 2 2 0 0 1-.133.02l-.287.027-.121.01-.102.009-.096.005-.215.011a3 3 0 0 1-.23.007 2 2 0 0 1-.166-.004L60.904 36a.3.3 0 0 1-.086-.023l-.097-.037"/><path fill="#FCD056" stroke="rgba(184, 151, 61, 1)" d="M33.883 39.842c1.183-1.285 5.424 3.831 4.557 5.355-1.38 2.425-5.398 5.828-5.398 6.842s2.017 1.64 2.017 3.517c0 .994-8.02.088-8.004-.505-.627-.46-1.84-6.379-1.604-9.43.235-3.051 3.255 2.765 3.737 2.001 2.88-4.562 3.513-6.494 4.695-7.78Z"/></svg>
